X:196
T:The Girl of the Big House
N:"Moderate" "collected by Cronin"
B:O'Neill's 196
Z:Transcribed by henrik.norbeck@mailbox.swipnet.se
M:6/8
L:1/8
K:D
GF2 D AG2 E|AGE .E.D.D|GF2 D AG2 E|AGE d2 z|
GF2 D AG2 E|AG.E .E.D.D|DcA GFE|GFD.D FED.D:|
ABA AGF|GAG GFG|ABA cAG|Ad.d d2 e|
fed cAG|FGF GFE|dcA GFE|GFD.D FED.D:|
